public/svgs/light/trademark.svg

<svg xmlns="http://www.w3.org/2000/svg" viewBox="0 0 640 512"><!-- Font Awesome Pro 6.0.0-alpha2 by @fontawesome - https://fontawesome.com License - https://fontawesome.com/license (Commercial License) --><path d="M240 96.038H16C7.17 96.038 0 103.195 0 112.036C0 120.866 7.157 128.034 16 128.034H112V400.002C112 408.832 119.157 416 128 416C136.83 416 144 408.843 144 400.002V128.034H240C248.83 128.034 256 120.877 256 112.036C256 103.206 248.843 96.038 240 96.038ZM629.438 97.006C623.062 94.6 616 96.631 611.719 101.787L464 279.016L316.281 101.787C311.969 96.631 304.875 94.6 298.562 97.006C292.219 99.287 288 105.287 288 112.036V400.002C288 408.845 295.156 416 304 416S320 408.845 320 400.002V156.218L451.719 314.262C457.781 321.574 470.219 321.574 476.281 314.262L608 156.218V400.002C608 408.845 615.156 416 624 416S640 408.845 640 400.002V112.036C640 105.287 635.781 99.287 629.438 97.006Z"/></svg>

<svg xmlns="http://www.w3.org/2000/svg" viewBox="0 0 640 512"><!--! Font Awesome Pro 6.5.1 by @fontawesome - https://fontawesome.com License - https://fontawesome.com/license (Commercial License) Copyright 2023 Fonticons, Inc. --><path d="M0 112c0 8.8 7.2 16 16 16H240c8.8 0 16-7.2 16-16s-7.2-16-16-16H16c-8.8 0-16 7.2-16 16zM112 400c0 8.8 7.2 16 16 16s16-7.2 16-16V128H112V400zM316.3 101.8c-4.3-5.2-11.4-7.1-17.7-4.8s-10.6 8.3-10.6 15V400c0 8.8 7.2 16 16 16s16-7.2 16-16V156.2L451.7 314.2c3 3.6 7.5 5.8 12.3 5.8s9.3-2.1 12.3-5.8L608 156.2V400c0 8.8 7.2 16 16 16s16-7.2 16-16V112c0-6.7-4.2-12.8-10.6-15s-13.4-.4-17.7 4.8L464 279 316.3 101.8z"/></svg>
